svg/color/jup.svg

<svg width="33" height="32" viewBox="0 0 33 32" fill="none" xmlns="http://www.w3.org/2000/svg">
<g clip-path="url(#clip0_11565_169621)">
<g filter="url(#filter0_d_11565_169621)">
<path d="M3.09074 25.1666C4.44267 27.0471 6.17683 28.6205 8.1795 29.7838C10.1822 30.947 12.4081 31.6738 14.7114 31.9165C13.5264 30.1333 11.8039 28.4928 9.65354 27.2438C7.50318 25.9948 5.22592 25.3125 3.09074 25.1666Z" fill="url(#paint0_linear_11565_169621)"/>
<path d="M12.543 22.2705C8.40015 19.8636 3.91612 19.2502 0.707663 20.3338C1.0174 21.3575 1.42589 22.3487 1.92738 23.2934C4.71498 23.2288 7.75856 23.9859 10.5906 25.6308C13.4227 27.2757 15.5888 29.5459 16.9143 32C17.9839 31.9672 19.0479 31.8309 20.0913 31.5932C19.4426 28.2698 16.6849 24.6779 12.543 22.2705Z" fill="url(#paint1_linear_11565_169621)"/>
<path d="M32.2852 12.5009C31.7585 10.3584 30.8054 8.34403 29.4829 6.57804C28.1604 4.81205 26.4956 3.33067 24.5879 2.22235C22.6802 1.11403 20.5687 0.401504 18.3796 0.127309C16.1904 -0.146885 13.9684 0.0228794 11.8463 0.626465C15.3915 1.06033 19.3267 2.39122 23.1859 4.63324C27.0452 6.87525 30.1533 9.63411 32.2852 12.5009Z" fill="url(#paint2_linear_11565_169621)"/>
<path d="M27.1271 20.3583C25.3124 17.3446 22.2038 14.4588 18.3743 12.2342C14.5449 10.0095 10.4991 8.7388 6.98531 8.65474C3.894 8.58152 1.57389 9.48017 0.621548 11.1197C0.616125 11.1294 0.608532 11.1386 0.602566 11.1484C0.516877 11.4559 0.44312 11.7639 0.37587 12.0731C1.70568 11.5481 3.24645 11.2558 4.95969 11.2232C8.76959 11.1517 13.0334 12.3703 16.9681 14.6562C20.9027 16.9422 24.0759 20.0438 25.9003 23.3878C26.7182 24.8944 27.2285 26.3777 27.4308 27.7948C27.6662 27.5844 27.8972 27.3669 28.1212 27.1408C28.1272 27.1305 28.131 27.1196 28.1369 27.1088C29.0893 25.4677 28.721 23.0076 27.1271 20.3583Z" fill="url(#paint3_linear_11565_169621)"/>
<path d="M15.4609 17.2485C9.59662 13.8416 3.11626 13.3079 0 15.6855C0.00612096 16.4297 0.0630166 17.1726 0.170292 17.9091C1.08699 17.6312 2.03177 17.4562 2.98718 17.3874C6.46952 17.1254 10.3087 18.0957 13.7927 20.1207C17.2766 22.1458 20.023 25.0018 21.5209 28.1543C21.935 29.018 22.2508 29.9254 22.4624 30.8595C23.1555 30.5878 23.8294 30.2694 24.4794 29.9066C25.0011 26.0213 21.3268 20.656 15.4609 17.2485Z" fill="url(#paint4_linear_11565_169621)"/>
<path d="M30.1434 15.3141C28.3082 12.3036 25.1724 9.40969 21.3158 7.17039C17.4593 4.93109 13.3977 3.64033 9.87257 3.53674C7.1853 3.45919 5.10382 4.11053 4.02457 5.34109C8.50588 4.58182 14.4168 5.85794 20.146 9.18625C25.8753 12.5146 29.9135 17.0181 31.4722 21.2868C32.0064 19.7406 31.5416 17.6098 30.1434 15.3141Z" fill="url(#paint5_linear_11565_169621)"/>
</g>
</g>
<defs>
<filter id="filter0_d_11565_169621" x="-22.7449" y="-20.4704" width="77.7749" height="77.4898" filterUnits="userSpaceOnUse" color-interpolation-filters="sRGB">
<feFlood flood-opacity="0" result="BackgroundImageFix"/>
<feColorMatrix in="SourceAlpha" type="matrix" values="0 0 0 0 0 0 0 0 0 0 0 0 0 0 0 0 0 0 127 0" result="hardAlpha"/>
<feOffset dy="2.27449"/>
<feGaussianBlur stdDeviation="11.3724"/>
<feComposite in2="hardAlpha" operator="out"/>
<feColorMatrix type="matrix" values="0 0 0 0 0 0 0 0 0 0 0 0 0 0 0 0 0 0 0.1 0"/>
<feBlend mode="normal" in2="BackgroundImageFix" result="effect1_dropShadow_11565_169621"/>
<feBlend mode="normal" in="SourceGraphic" in2="effect1_dropShadow_11565_169621" result="shape"/>
</filter>
<linearGradient id="paint0_linear_11565_169621" x1="21.5" y1="6.5" x2="6.66667" y2="32" gradientUnits="userSpaceOnUse">
<stop offset="0.0001" stop-color="#C7F284"/>
<stop offset="1" stop-color="#00BEF0"/>
</linearGradient>
<linearGradient id="paint1_linear_11565_169621" x1="21.5" y1="6.5" x2="6.66667" y2="32" gradientUnits="userSpaceOnUse">
<stop offset="0.0001" stop-color="#C7F284"/>
<stop offset="1" stop-color="#00BEF0"/>
</linearGradient>
<linearGradient id="paint2_linear_11565_169621" x1="21.5" y1="6.5" x2="6.66667" y2="32" gradientUnits="userSpaceOnUse">
<stop offset="0.0001" stop-color="#C7F284"/>
<stop offset="1" stop-color="#00BEF0"/>
</linearGradient>
<linearGradient id="paint3_linear_11565_169621" x1="21.5" y1="6.5" x2="6.66667" y2="32" gradientUnits="userSpaceOnUse">
<stop offset="0.0001" stop-color="#C7F284"/>
<stop offset="1" stop-color="#00BEF0"/>
</linearGradient>
<linearGradient id="paint4_linear_11565_169621" x1="21.5" y1="6.5" x2="6.66667" y2="32" gradientUnits="userSpaceOnUse">
<stop offset="0.0001" stop-color="#C7F284"/>
<stop offset="1" stop-color="#00BEF0"/>
</linearGradient>
<linearGradient id="paint5_linear_11565_169621" x1="21.5" y1="6.5" x2="6.66667" y2="32" gradientUnits="userSpaceOnUse">
<stop offset="0.0001" stop-color="#C7F284"/>
<stop offset="1" stop-color="#00BEF0"/>
</linearGradient>
<clipPath id="clip0_11565_169621">
<rect width="32.2852" height="32" fill="white"/>
</clipPath>
</defs>
</svg>

<svg xmlns="http://www.w3.org/2000/svg" width="33" height="32" fill="none" viewBox="0 0 33 32"><g clip-path="url(#jup_svg-a)" filter="url(#jup_svg-b)"><path fill="url(#jup_svg-c)" d="M3.09 25.167a16.43 16.43 0 0 0 11.621 6.75c-1.185-1.784-2.907-3.424-5.057-4.673s-4.428-1.931-6.563-2.077"/><path fill="url(#jup_svg-d)" d="M12.543 22.27C8.4 19.865 3.916 19.25.708 20.335c.31 1.024.718 2.015 1.22 2.96 2.787-.065 5.83.692 8.663 2.337 2.832 1.645 4.998 3.915 6.323 6.369 1.07-.033 2.134-.17 3.177-.407-.648-3.323-3.406-6.915-7.548-9.323"/><path fill="url(#jup_svg-e)" d="M32.285 12.5A16.42 16.42 0 0 0 11.846.627c3.546.434 7.48 1.765 11.34 4.007s6.967 5.001 9.1 7.868"/><path fill="url(#jup_svg-f)" d="M27.127 20.358c-1.815-3.013-4.923-5.9-8.753-8.124S10.5 8.74 6.985 8.654C3.894 8.583 1.574 9.48.622 11.12l-.02.028q-.126.462-.226.925c1.33-.525 2.87-.817 4.584-.85 3.81-.071 8.073 1.147 12.008 3.433s7.108 5.388 8.932 8.732c.818 1.506 1.329 2.99 1.53 4.407q.354-.315.691-.654l.016-.032c.952-1.641.584-4.101-1.01-6.75"/><path fill="url(#jup_svg-g)" d="M15.46 17.249C9.598 13.842 3.117 13.308 0 15.686q.01 1.117.17 2.223a13 13 0 0 1 2.817-.522c3.483-.262 7.322.709 10.806 2.734s6.23 4.88 7.728 8.033c.414.864.73 1.771.941 2.706q1.042-.408 2.017-.953c.522-3.886-3.152-9.251-9.018-12.658"/><path fill="url(#jup_svg-h)" d="M30.143 15.314c-1.835-3.01-4.97-5.904-8.827-8.144-3.857-2.239-7.918-3.53-11.443-3.633-2.688-.078-4.77.574-5.848 1.804 4.48-.76 10.392.517 16.121 3.845 5.73 3.329 9.767 7.832 11.326 12.1.534-1.545.07-3.676-1.329-5.972"/></g><defs><linearGradient id="jup_svg-c" x1="21.5" x2="6.667" y1="6.5" y2="32" gradientUnits="userSpaceOnUse"><stop offset="0" stop-color="#C7F284"/><stop offset="1" stop-color="#00BEF0"/></linearGradient><linearGradient id="jup_svg-d" x1="21.5" x2="6.667" y1="6.5" y2="32" gradientUnits="userSpaceOnUse"><stop offset="0" stop-color="#C7F284"/><stop offset="1" stop-color="#00BEF0"/></linearGradient><linearGradient id="jup_svg-e" x1="21.5" x2="6.667" y1="6.5" y2="32" gradientUnits="userSpaceOnUse"><stop offset="0" stop-color="#C7F284"/><stop offset="1" stop-color="#00BEF0"/></linearGradient><linearGradient id="jup_svg-f" x1="21.5" x2="6.667" y1="6.5" y2="32" gradientUnits="userSpaceOnUse"><stop offset="0" stop-color="#C7F284"/><stop offset="1" stop-color="#00BEF0"/></linearGradient><linearGradient id="jup_svg-g" x1="21.5" x2="6.667" y1="6.5" y2="32" gradientUnits="userSpaceOnUse"><stop offset="0" stop-color="#C7F284"/><stop offset="1" stop-color="#00BEF0"/></linearGradient><linearGradient id="jup_svg-h" x1="21.5" x2="6.667" y1="6.5" y2="32" gradientUnits="userSpaceOnUse"><stop offset="0" stop-color="#C7F284"/><stop offset="1" stop-color="#00BEF0"/></linearGradient><clipPath id="jup_svg-a"><path fill="#fff" d="M0 0h32.285v32H0z"/></clipPath><filter id="jup_svg-b" width="77.775" height="77.49" x="-22.745" y="-20.47" color-interpolation-filters="sRGB" filterUnits="userSpaceOnUse"><feFlood flood-opacity="0" result="BackgroundImageFix"/><feColorMatrix in="SourceAlpha" result="hardAlpha" values="0 0 0 0 0 0 0 0 0 0 0 0 0 0 0 0 0 0 127 0"/><feOffset dy="2.274"/><feGaussianBlur stdDeviation="11.372"/><feComposite in2="hardAlpha" operator="out"/><feColorMatrix values="0 0 0 0 0 0 0 0 0 0 0 0 0 0 0 0 0 0 0.1 0"/><feBlend in2="BackgroundImageFix" result="effect1_dropShadow_11565_169621"/><feBlend in="SourceGraphic" in2="effect1_dropShadow_11565_169621" result="shape"/></filter></defs></svg>
